images/icones-solutions-xcloud/gestion-effectifs.svg

<?xml version="1.0" encoding="UTF-8"?>
<svg width="119px" height="89px" viewBox="0 0 119 89" version="1.1" xmlns="http://www.w3.org/2000/svg" xmlns:xlink="http://www.w3.org/1999/xlink">
    <!-- Generator: Sketch 42 (36781) - http://www.bohemiancoding.com/sketch -->
    <title>EFFECTIF</title>
    <desc>Created with Sketch.</desc>
    <defs>
        <polygon id="path-1" points="118.3882 55 0.0002 55 0.0002 0.6384 118.3882 0.6384 118.3882 55"></polygon>
    </defs>
    <g id="HOME" stroke="none" stroke-width="1" fill="none" fill-rule="evenodd">
        <g id="Desktop-HD---ICONES-SOLUTIONS" transform="translate(-796.000000, -557.000000)">
            <g id="MIDDLE-ROW" transform="translate(218.000000, 537.000000)">
                <g id="GESTION-DES-EFFECTUFS" transform="translate(543.000000, 0.000000)">
                    <g id="EFFECTIF" transform="translate(35.000000, 20.000000)">
                        <path d="M59.3189,25.0001 C64.0679,25.0001 69.0079,26.0261 74.1409,28.0801 C79.2739,30.1331 81.8399,32.8281 81.8399,36.1641 L81.8399,45.4041 L36.7979,45.4041 L36.7979,36.1641 C36.7979,32.8281 39.3639,30.1331 44.4969,28.0801 C49.6309,26.0261 54.5709,25.0001 59.3189,25.0001 M58.9999,20.5961 C56.1759,20.5961 53.7709,19.6021 51.7809,17.6121 C49.7919,15.6241 48.7979,13.2171 48.7979,10.3941 C48.7979,7.5711 49.7919,5.1331 51.7809,3.0801 C53.7709,1.0261 56.1759,0.0001 58.9999,0.0001 C61.8229,0.0001 64.2289,1.0261 66.2179,3.0801 C68.2069,5.1331 69.2009,7.5711 69.2009,10.3941 C69.2009,13.2171 68.2069,15.6241 66.2179,17.6121 C64.2289,19.6021 61.8229,20.5961 58.9999,20.5961" id="Fill-1" fill="#D0011B"></path>
                        <path d="M72.0177,52.4649 C72.0177,59.3491959 66.4370959,64.9298 59.5528,64.9298 C52.6685041,64.9298 47.0879,59.3491959 47.0879,52.4649 C47.0879,45.5806041 52.6685041,40 59.5528,40 C66.4370959,40 72.0177,45.5806041 72.0177,52.4649" id="Fill-3" fill="#FEFEFE"></path>
                        <path d="M44.3665,46.7054551 C44.3665,55.3791471 37.3347369,62.4098 28.6610449,62.4098 C19.9873529,62.4098 12.9567,55.3791471 12.9567,46.7054551 C12.9567,38.0317631 19.9873529,31 28.6610449,31 C37.3347369,31 44.3665,38.0317631 44.3665,46.7054551" id="Fill-5" fill="#FEFEFE"></path>
                        <path d="M104.6668,46.2054374 C104.6668,54.6029834 97.8599834,61.4098 89.4624374,61.4098 C81.0638166,61.4098 74.257,54.6029834 74.257,46.2054374 C74.257,37.8078915 81.0638166,31 89.4624374,31 C97.8599834,31 104.6668,37.8078915 104.6668,46.2054374" id="Fill-7" fill="#FEFEFE"></path>
                        <g id="Group-11" transform="translate(0.000000, 33.277000)">
                            <mask id="mask-2" fill="white">
                                <use xlink:href="#path-1"></use>
                            </mask>
                            <g id="Clip-10"></g>
                            <path d="M101.4502,31.9014 C105.6842,32.9284 109.5662,34.5964 113.0962,36.9064 C116.6242,39.2154 118.3882,41.8464 118.3882,44.7974 L118.3882,55.0004 L89.7082,55.0004 L89.7082,45.7604 C89.7082,39.8574 86.4352,35.1094 79.8902,31.5164 C83.6122,30.7464 86.8852,30.3614 89.7082,30.3614 C93.3012,30.3614 97.2152,30.8754 101.4502,31.9014 M81.0462,21.6194 C78.6072,19.1814 77.3882,16.2944 77.3882,12.9574 C77.3882,9.6214 78.6072,6.7344 81.0462,4.2964 C83.4842,1.8574 86.3712,0.6384 89.7082,0.6384 C93.0452,0.6384 95.9312,1.8574 98.3702,4.2964 C100.8082,6.7344 102.0272,9.6214 102.0272,12.9574 C102.0272,16.2944 100.8082,19.1814 98.3702,21.6194 C95.9312,24.0584 93.0452,25.2764 89.7082,25.2764 C86.3712,25.2764 83.4842,24.0584 81.0462,21.6194 M28.6802,30.3614 C31.5042,30.3614 34.7762,30.7464 38.4972,31.5164 C31.9532,35.1094 28.6802,39.8574 28.6802,45.7604 L28.6802,55.0004 L0.0002,55.0004 L0.0002,44.7974 C0.0002,41.8464 1.7642,39.2154 5.2932,36.9064 C8.8222,34.5964 12.7042,32.9284 16.9392,31.9014 C21.1742,30.8754 25.0872,30.3614 28.6802,30.3614 M59.4792,34.5964 C64.2262,34.5964 69.1672,35.6234 74.3012,37.6764 C79.4332,39.7294 82.0002,42.4234 82.0002,45.7604 L82.0002,55.0004 L36.9572,55.0004 L36.9572,45.7604 C36.9572,42.4234 39.5242,39.7294 44.6572,37.6764 C49.7902,35.6234 54.7312,34.5964 59.4792,34.5964 M28.6802,25.2764 C25.3442,25.2764 22.4572,24.0584 20.0182,21.6194 C17.5802,19.1814 16.3612,16.2944 16.3612,12.9574 C16.3612,9.6214 17.5802,6.7344 20.0182,4.2964 C22.4572,1.8574 25.3442,0.6384 28.6802,0.6384 C32.0172,0.6384 34.9042,1.8574 37.3432,4.2964 C39.7812,6.7344 41.0002,9.6214 41.0002,12.9574 C41.0002,16.2944 39.7812,19.1814 37.3432,21.6194 C34.9042,24.0584 32.0172,25.2764 28.6802,25.2764 M59.4792,30.3194 C56.6562,30.3194 54.2492,29.3244 52.2612,27.3354 C50.2712,25.3464 49.2772,22.9404 49.2772,20.1174 C49.2772,17.2944 50.2712,14.8564 52.2612,12.8024 C54.2492,10.7494 56.6562,9.7234 59.4792,9.7234 C62.3022,9.7234 64.7082,10.7494 66.6972,12.8024 C68.6862,14.8564 69.6802,17.2944 69.6802,20.1174 C69.6802,22.9404 68.6862,25.3464 66.6972,27.3354 C64.7082,29.3244 62.3022,30.3194 59.4792,30.3194" id="Fill-9" fill="#D0011B" mask="url(#mask-2)"></path>
                        </g>
                    </g>
                </g>
            </g>
        </g>
    </g>
</svg>

<?xml version="1.0" encoding="utf-8"?>
<!-- Generator: Adobe Illustrator 21.0.1, SVG Export Plug-In . SVG Version: 6.00 Build 0)  -->
<svg version="1.1" id="Layer_1" xmlns="http://www.w3.org/2000/svg" xmlns:xlink="http://www.w3.org/1999/xlink" x="0px" y="0px"
	 viewBox="0 0 119 89" style="enable-background:new 0 0 119 89;" xml:space="preserve">
<style type="text/css">
	.st0{fill:#D0011B;}
	.st1{fill:#FEFEFE;}
	.st2{filter:url(#Adobe_OpacityMaskFilter);}
	.st3{fill:#FFFFFF;}
	.st4{mask:url(#mask-2);fill:#D0011B;}
</style>
<title>EFFECTIF</title>
<desc>Created with Sketch.</desc>
<g id="HOME">
	<g id="Desktop-HD---ICONES-SOLUTIONS" transform="translate(-796.000000, -557.000000)">
		<g id="MIDDLE-ROW" transform="translate(218.000000, 537.000000)">
			<g id="GESTION-DES-EFFECTUFS" transform="translate(543.000000, 0.000000)">
				<g id="EFFECTIF" transform="translate(35.000000, 20.000000)">
					<path id="Fill-1" class="st0" d="M59.3,25c4.7,0,9.7,1,14.8,3.1c5.1,2.1,7.7,4.7,7.7,8.1v9.2h-45v-9.2c0-3.3,2.6-6,7.7-8.1
						C49.6,26,54.6,25,59.3,25 M59,20.6c-2.8,0-5.2-1-7.2-3c-2-2-3-4.4-3-7.2s1-5.3,3-7.3C53.8,1,56.2,0,59,0c2.8,0,5.2,1,7.2,3.1
						c2,2.1,3,4.5,3,7.3s-1,5.2-3,7.2C64.2,19.6,61.8,20.6,59,20.6"/>
					<path id="Fill-3" class="st1" d="M72,52.5c0,6.9-5.6,12.5-12.5,12.5s-12.5-5.6-12.5-12.5S52.7,40,59.6,40S72,45.6,72,52.5"/>
					<path id="Fill-5" class="st1" d="M44.4,46.7c0,8.7-7,15.7-15.7,15.7S13,55.4,13,46.7S20,31,28.7,31S44.4,38,44.4,46.7"/>
					<path id="Fill-7" class="st1" d="M104.7,46.2c0,8.4-6.8,15.2-15.2,15.2c-8.4,0-15.2-6.8-15.2-15.2S81.1,31,89.5,31
						C97.9,31,104.7,37.8,104.7,46.2"/>
					<g id="Group-11" transform="translate(0.000000, 33.277000)">
						<g id="Clip-10">
						</g>
						<defs>
							<filter id="Adobe_OpacityMaskFilter" filterUnits="userSpaceOnUse" x="0" y="0.6" width="118.4" height="54.4">
								<feColorMatrix  type="matrix" values="1 0 0 0 0  0 1 0 0 0  0 0 1 0 0  0 0 0 1 0"/>
							</filter>
						</defs>
						<mask maskUnits="userSpaceOnUse" x="0" y="0.6" width="118.4" height="54.4" id="mask-2">
							<g class="st2">
								<polygon id="path-1" class="st3" points="118.4,55 0,55 0,0.6 118.4,0.6 								"/>
							</g>
						</mask>
						<path id="Fill-9" class="st4" d="M101.5,31.9c4.2,1,8.1,2.7,11.6,5c3.5,2.3,5.3,4.9,5.3,7.9V55H89.7v-9.2
							c0-5.9-3.3-10.7-9.8-14.2c3.7-0.8,7-1.2,9.8-1.2C93.3,30.4,97.2,30.9,101.5,31.9 M81,21.6c-2.4-2.4-3.7-5.3-3.7-8.7
							c0-3.3,1.2-6.2,3.7-8.7c2.4-2.4,5.3-3.7,8.7-3.7s6.2,1.2,8.7,3.7c2.4,2.4,3.7,5.3,3.7,8.7c0,3.3-1.2,6.2-3.7,8.7
							c-2.4,2.4-5.3,3.7-8.7,3.7S83.5,24.1,81,21.6 M28.7,30.4c2.8,0,6.1,0.4,9.8,1.2c-6.5,3.6-9.8,8.3-9.8,14.2V55H0V44.8
							c0-3,1.8-5.6,5.3-7.9c3.5-2.3,7.4-4,11.6-5C21.2,30.9,25.1,30.4,28.7,30.4 M59.5,34.6c4.7,0,9.7,1,14.8,3.1
							c5.1,2.1,7.7,4.7,7.7,8.1V55H37v-9.2c0-3.3,2.6-6,7.7-8.1C49.8,35.6,54.7,34.6,59.5,34.6 M28.7,25.3c-3.3,0-6.2-1.2-8.7-3.7
							c-2.4-2.4-3.7-5.3-3.7-8.7c0-3.3,1.2-6.2,3.7-8.7c2.4-2.4,5.3-3.7,8.7-3.7c3.3,0,6.2,1.2,8.7,3.7C39.8,6.7,41,9.6,41,13
							c0,3.3-1.2,6.2-3.7,8.7C34.9,24.1,32,25.3,28.7,25.3 M59.5,30.3c-2.8,0-5.2-1-7.2-3c-2-2-3-4.4-3-7.2s1-5.3,3-7.3
							c2-2.1,4.4-3.1,7.2-3.1c2.8,0,5.2,1,7.2,3.1c2,2.1,3,4.5,3,7.3s-1,5.2-3,7.2C64.7,29.3,62.3,30.3,59.5,30.3"/>
					</g>
				</g>
			</g>
		</g>
	</g>
</g>
</svg>
